pointercrate-demonlist-pages/static/images/flags/co/met.svg

<svg xmlns="http://www.w3.org/2000/svg" width="2550" height="1700" viewBox="0 0 85 56.666667">
  <path fill="#078930" style="fill:#00873a;fill-opacity:1;stroke-width:3.33333" d="M0 0h85v56.666668H0z"/>
  <path style="fill:#f1f4ff;fill-opacity:1;stroke:none;stroke-width:.109394" d="M0 3.3333333h85v3.3333333H0zM0 10h85v3.3333333H0zM0 16.666666h85v3.3333333H0zM0 23.333334h85v3.3333333H0zM0 30h85v3.3333333H0zM0 36.666668h85v3.3333333H0zM0 43.333332h85v3.3333333H0zM0 50h85v3.3333333H0z"/>
</svg>

<?xml version="1.0" encoding="UTF-8"?>
<svg width="2550" height="1700" viewBox="0 0 85 56.667" xmlns="http://www.w3.org/2000/svg">
 <path d="m0 0h85v56.667h-85z" fill="#00873a" stroke-width="3.3333"/>
 <path d="m0 3.3333h85v3.3333h-85zm0 6.6667h85v3.3333h-85zm0 6.6667h85v3.3333h-85zm0 6.6667h85v3.3333h-85zm0 6.6667h85v3.3333h-85zm0 6.6667h85v3.3333h-85zm0 6.6667h85v3.3333h-85zm0 6.6667h85v3.3333h-85z" fill="#f1f4ff"/>
</svg>
